src/assets/icons/remove.svg

<svg width="16" height="16" viewBox="0 0 16 16" fill="none" xmlns="http://www.w3.org/2000/svg">
<g clip-path="url(#clip0_8874_15299)">
<path fill-rule="evenodd" clip-rule="evenodd" d="M7.46212 0.0158669C5.75937 0.131112 4.19139 0.764035 2.84549 1.8794C2.62517 2.06196 2.06341 2.62372 1.88085 2.84403C0.860439 4.07536 0.245965 5.48548 0.0591281 7.02465C-0.190529 9.08124 0.362731 11.1568 1.59742 12.7954C1.84631 13.1257 2.0146 13.3176 2.34852 13.6515C2.68243 13.9854 2.87425 14.1537 3.20456 14.4026C4.71326 15.5393 6.61893 16.1076 8.50676 15.9836C10.2345 15.8701 11.8013 15.2418 13.156 14.1191C13.3763 13.9366 13.938 13.3748 14.1206 13.1545C14.6904 12.4669 15.1066 11.7738 15.4247 10.983C16.4661 8.39322 16.0764 5.42273 14.404 3.2031C14.1551 2.87279 13.9869 2.68098 13.6529 2.34706C13.319 2.01314 13.1272 1.84486 12.7969 1.59597C11.2814 0.454071 9.36665 -0.11304 7.46212 0.0158669ZM7.62026 1.72517C6.32024 1.80334 5.09151 2.27808 4.05612 3.10227C3.84005 3.27427 3.27572 3.83859 3.10373 4.05467C2.3758 4.96914 1.91693 6.04177 1.76843 7.17599C1.60384 8.43298 1.81866 9.69315 2.39272 10.8383C2.69623 11.4438 3.04593 11.9222 3.56192 12.4379C4.28974 13.1652 5.05208 13.6393 6.00873 13.9594C7.60869 14.4948 9.31978 14.3691 10.8461 13.6041C11.4433 13.3048 11.925 12.9522 12.4393 12.4379C13.1663 11.7109 13.6407 10.9481 13.9609 9.99126C14.4962 8.39131 14.3706 6.68021 13.6056 5.15394C13.3064 4.55696 12.954 4.07542 12.4393 3.56046C11.7137 2.83441 10.9498 2.35941 9.99272 2.03913C9.42993 1.85082 8.96293 1.76171 8.3427 1.72429C8.03284 1.70561 7.94372 1.70571 7.62026 1.72517ZM5.11106 4.40291C5.02353 4.41683 4.86034 4.48326 4.77457 4.53989C4.42415 4.77125 4.29807 5.23688 4.48068 5.62518C4.52704 5.72373 4.6357 5.83778 5.66321 6.86649L6.79467 7.99927L5.66321 9.13205C4.41302 10.3837 4.45438 10.3352 4.40923 10.6029C4.31094 11.1856 4.81357 11.6895 5.39527 11.5916C5.66025 11.5469 5.61728 11.5836 6.86794 10.3356L8.00073 9.20532L9.13351 10.3356C10.1669 11.3668 10.276 11.4706 10.3774 11.5189C10.836 11.7371 11.3771 11.5166 11.5542 11.0394C11.6314 10.8313 11.6187 10.5827 11.5203 10.376C11.4721 10.2746 11.3682 10.1654 10.3371 9.13205L9.20678 7.99927L10.3371 6.86649C11.3682 5.8331 11.4721 5.72396 11.5203 5.62256C11.7386 5.16394 11.5183 4.62332 11.0409 4.4459C10.8346 4.36925 10.5818 4.3819 10.3748 4.47923C10.2763 4.52558 10.1622 4.63424 9.13351 5.66175L8.00073 6.79322L6.86794 5.66401C6.00595 4.80475 5.71382 4.52361 5.6459 4.488C5.5022 4.41263 5.27614 4.37667 5.11106 4.40291Z" fill="currentColor"/>
</g>
<defs>
<clipPath id="clip0_8874_15299">
<rect width="16" height="16" fill="white" transform="translate(0 -0.000732422)"/>
</clipPath>
</defs>
</svg>

<svg xmlns="http://www.w3.org/2000/svg" width="16" height="16" fill="none">
  <g clip-path="url(#a)">
    <path fill="currentColor" fill-rule="evenodd" d="M7.462.016C5.76.13 4.192.764 2.845 1.879c-.22.183-.782.745-.964.965C.86 4.075.246 5.485.059 7.024a8 8 0 0 0 1.538 5.771c.25.33.418.523.752.857.333.333.525.502.856.75a7.998 7.998 0 0 0 9.951-.283c.22-.182.782-.744.965-.964a8.002 8.002 0 0 0 .283-9.952 7.02 7.02 0 0 0-.751-.856 7.026 7.026 0 0 0-.856-.751A8.014 8.014 0 0 0 7.462.016Zm.158 1.71a6.299 6.299 0 0 0-3.564 1.376c-.216.172-.78.737-.952.953a6.32 6.32 0 0 0-1.336 3.121 6.3 6.3 0 0 0 .625 3.662 5.868 5.868 0 0 0 1.169 1.6 6.018 6.018 0 0 0 2.447 1.521c1.6.536 3.31.41 4.837-.355a5.88 5.88 0 0 0 1.593-1.166 6.015 6.015 0 0 0 1.522-2.447c.535-1.6.41-3.31-.355-4.837a5.885 5.885 0 0 0-1.167-1.594 6.014 6.014 0 0 0-2.446-1.52 5.945 5.945 0 0 0-1.65-.316 4.57 4.57 0 0 0-.723.001ZM5.111 4.402a1.1 1.1 0 0 0-.336.137.863.863 0 0 0-.294 1.085c.046.099.155.213 1.182 1.241L6.795 8 5.663 9.132c-1.25 1.252-1.209 1.203-1.254 1.47a.856.856 0 0 0 .986.99c.265-.045.222-.008 1.473-1.256L8 9.206l1.133 1.13c1.033 1.03 1.142 1.135 1.243 1.183a.858.858 0 0 0 1.177-.48.871.871 0 0 0-.034-.663c-.048-.101-.152-.21-1.183-1.244l-1.13-1.133 1.13-1.133c1.031-1.033 1.135-1.142 1.183-1.243a.858.858 0 0 0-.48-1.177.886.886 0 0 0-.665.033c-.099.047-.213.155-1.241 1.183L8 6.793 6.868 5.664c-.862-.86-1.154-1.14-1.222-1.176a.962.962 0 0 0-.535-.085Z" clip-rule="evenodd"/>
  </g>
  <defs>
    <clipPath id="a">
      <path fill="#fff" d="M0 0h16v16H0z"/>
    </clipPath>
  </defs>
</svg>
